X:1
T:Title
%%score { ( 1 3 ) | ( 2 4 ) }
L:1/8
M:6/4
K:G
V:1 treble nm="Grand Piano"
V:3 treble 
V:2 bass 
V:4 bass 
V:1
 z12[Q:1/4=100] | z2 G,2 [FA]B [Ec]4 [DB]A | z6 .[GB]6 | .[DB]6 z6 | [B,G]12 | .[DB]6 .[FA]6 | %6
 z6 .[GB]6 | [DB]2 [CA]2 [B,G]2 [A,F]2 [B,G]2 [CA]2 |[M:5/4] [B,G]2- [B,G]2- [B,G]6 | %9
[M:1/4] [DGB]2 |[M:6/4] [FA]2 [FA]2 [GB]2 [Ac]4 [Bd][Ac] | [DGB]2 [G,DG]2 [DA]2 [DB]4 [DGB][DAc] | %12
 [DBd]2 [DB]2 [^DA]2 [EG]2 [A,=DF]2 [^CEG]2 | A2- [^CGA-]3 [CGA-] [DFA]4 [DGB][DAc] | %14
 [DBd]2 [D_B^c]2 d-[B,Gd] [^Ge]4 [G=B][Ed] |[M:7/4] [Ec]2 [EG]2 [EA]2 [^DB]6 [DB]2 | %16
[M:6/4] z2 A,2 [EB][^Dc] B B3 A2 |[M:5/4] [B,G]2- [B,G]2- [B,G]6 |] %18
V:2
 z6 z4 D2 | G,,2 .D,3 =F G,,2 .G,3 C | E,2 E,,2 D,,2 G,,2 D,2 G,2 | D,,2 .D,3 B, D,2 D,2 D,2 | %4
 G,2 D,2 B,,2 G,,2 G,2 D2 | z4 [D,G,]2 z6 | A,,2 [E,A,]2 D,2 G,,2 D,2 D,2 | %7
 D,,2 D,2 D,2 D,2 D,2 D,2 |[M:5/4] G,2 D,2 B,,2 G,,2 D,2 |[M:1/4] G,,2 | %10
[M:6/4] [D,D]2 [D,D]2 [D,D]2 [D,D]4 [D,D][D,D] | G,,2 B,,2 [A,,F,]2 [G,,G,]4 G,G, | %12
 G,,2 [G,,G,]2 [B,,F,]2 E,2 A,,2 A,,2 | D,2 E,3 A,, D,4 D,D, | G,2 G,2 G,=F, [E,B,]4 [E,E][E,^G,] | %15
[M:7/4] [A,,A,]2 [C,G,]2 [C,F,]2 [B,,F,]6 [B,,F,]2 | %16
[M:6/4] .[C,E,]4 [B,,^G,][A,,A,] [D,G,D] [D,G,D]3 [D,,D,F,C]2 |[M:5/4] z2 G,2- G,4- G,3/2 z/ |] %18
V:3
 x12 | .[DB]6 z6 | [B,G]2 [EG]2 [FA]2 z2 G,2 [GB]2 | z2 G,2 [CA]G [A,F]2 [B,G]2 [CA]2 | x12 | %5
 z2 G,2 BB z2 A,2 [FA][=FB] | [Ec]2 [Ac]2 [Fc]2 z2 G,2 [GB]2 | x12 |[M:5/4] z2 z2 z4 G,2 | %9
[M:1/4] x2 |[M:6/4] x12 | x12 | x12 | .[DF]6 z6 | z4 .[D=B]2 z6 |[M:7/4] x14 |[M:6/4] .[EA]6 z6 | %17
[M:5/4] G,2 z2 z2 z4 |] %18
V:4
 x12 | z4 D,2 z4 D,2 | x12 | z4 D,2 z6 | x12 | G,,2 D,2 DD D,,2 D,2 C,^G,, | x12 | x12 | %8
[M:5/4] x10 |[M:1/4] x2 |[M:6/4] x12 | x12 | x12 | x12 | x12 |[M:7/4] x14 |[M:6/4] x12 | %17
[M:5/4] G,,2 z2 D,2 G,,4 |] %18

